images/icons/v2/emoji-flag-solid-20.svg

<svg height="20" viewBox="0 0 20 20" width="20" xmlns="http://www.w3.org/2000/svg"><path d="m17.5 3.3a11.4 11.4 0 0 0 -7.3 0 10.014 10.014 0 0 1 -6.4 0l-.3-.1v-1.2h-1.5v16h1.5v-4.2a11.336 11.336 0 0 0 3.2.6 12.088 12.088 0 0 0 3.8-.6 10.014 10.014 0 0 1 6.4 0l1 .4v-10.7zm-12.5 9.3a5.638 5.638 0 0 1 -1.2-.4l-.2-.1v-7.3c.4.1.9.3 1.4.4z"/></svg>

<svg xmlns="http://www.w3.org/2000/svg" width="20" height="20" viewBox="0 0 20 20"><title>emoji-flag-solid-20</title><path d="M17.5,3.3a11.4,11.4,0,0,0-7.3,0,10.014,10.014,0,0,1-6.4,0l-.3-.1V2H2V18H3.5V13.8a11.336,11.336,0,0,0,3.2.6,12.088,12.088,0,0,0,3.8-.6,10.014,10.014,0,0,1,6.4,0l1,.4V3.5ZM5,12.6a5.638,5.638,0,0,1-1.2-.4l-.2-.1V4.8c.4.1.9.3,1.4.4Z"/></svg>
